X:1
T:Title
%%score ( 1 2 ) 3
L:1/8
Q:1/4=100
M:4/4
K:G
V:1 treble nm="Violin, SOPRANO ALTO"
V:2 treble 
V:3 bass nm="Violin, TENOR BASS"
V:1
 z4 z2 DD | [DG]2 [DG]2 [DG][DG][DG][DA] | [GB]2 [Gc]2 [GB]2 [DG]2 | [GB]2 [GB]2 [GB][GB][GB]G | %4
w: 1.~Je sus~|Christ~ has~ come~ to~ set~ the~|cap tive~ free,~ He~|died~ to~ take~ a way~ death's~|
 [FA]6 D2 | [DG]2 [DG][DG] [DG]2 D[DG] | [GB]2 [Gc]2 [GB]2 [DG]2 | [GB]2 [Gc]2 [GB][EG][GB][FA] | %8
w: sting;~ His~|blood~ as~ a~ ran som~ He~|gave~ for~ thee,~ Then~|praise~ to~ Him~ you~ ought~ to~|
 [DG]4- [DG][DG][DG][GB] | d6 z2 | G6 z2 | G6 z2 | G6 z2 | d2- [Gd-]2 [Gd-][Gd][GB][EA] | G6 z2 | %15
w: sing.~ * * * *|||||||
 B2- [GB-][GB-] [GB][Ac][GB][FA] | [DG]6 z2 |] %17
w: ||
V:2
 x8 | x8 | x8 | x8 | x8 | x8 | x8 | x8 | x8 | G2 G2 GG[Gd][GB] | D2 E2 D2 [DG][DG] | %11
 EEEE E[EG]E[EG] | D2 EE D2 [DG][GB] | G2 z2 z4 | D2 E2 D2 G[GA] | G2 z2 z4 | x8 |] %17
V:3
 z4 z2 [G,B,][G,B,] | [G,B,]2 [G,B,]2 [G,B,][G,B,][G,B,][G,C] | [G,D]2 [G,C]2 [G,B,]2 [G,B,]2 | %3
 [G,D]2 [G,D]2 [G,D][G,D][G,D][E,^C] | [D,D]6 [G,B,]2 | [G,B,]2 [G,B,][G,B,] [G,B,]2 [G,B,][G,B,] | %6
 [G,D]2 [G,E]2 [G,D]2 [G,B,]2 | [G,D]2 [C,E]2 [D,D][E,B,][D,D][D,C] | %8
 [G,,B,]4- [G,,B,][G,B,][G,B,][G,D] | [G,B,]2 [G,B,]2 [G,B,][G,B,][G,B,][G,D] | %10
 [G,B,]2 [G,C]2 [G,B,]2 [G,B,][G,B,] | [C,C][C,C][C,C][C,C] [C,C][C,C][C,C][C,C] | %12
 [G,B,]2 [G,C][G,C] [G,B,]2 [G,B,][G,D] | [G,B,]2 [G,B,]2 [G,B,][G,B,][G,D][G,C] | %14
 [G,B,]2 [G,C]2 [G,B,]2 [B,,D][C,E] | [D,D]2 [D,D][D,D] [D,D][D,E][D,D][D,C] | [G,,G,B,]6 z2 |] %17

